!!!!SEGMENT: pl-wumfc--n47524--001_karlowicz-mieczyslaw--szesc-piesni-op-6-no-1-zasmuconej.krn
!!!cenid: 18xx:4243
!!!COM: Karłowicz, Mieczysław
!!!COM-rismID: pe30108288
!!!CDT: 1876/12/11-1909/02/08
!!!CNT: Polish
!!!GTL: Sześć pieśni op. 6
!!!OTL: No. 1 Zasmuconej
!!!OMV: 001
!!!PDT: 1897
!!!AGN:
!!!SMS-siglum: PL-Wumfc
!!!SMS-shelfmark: N47524
!!!SMS-shelfwork: 001-001 G
!!!SMS-variant:
!!!SMS-altvar:
!!!NIFC-rismSourceID: 1001177915
!!!NIFC-rismChildID: 1001177915
!!!NIFC-islandoraID: pl-wumfc:8021
!!!URL-pdf-islandora: https://repozytorium.nifc.pl/islandora/object/pl-wumfc:8021/datastream/PDF/view
!!!URL-scan: https://polish.musicsources.pl/pl/lokalizacje/galeria/druki-muzyczne/12515/2 @EN{Scan on Polish Music Sources Website} @PL{Skany w portalu Dziedzictwo Muzyki Polskiej w otwartym dostępie}
!!!IIIF:
!!!ONB-nifc: Skan 0002
!!!AIN: 2 piano 1 vox
!!!key: D
**kern	**kern	**dynam	**kern	**text	**text	**dynam
*part3	*part2	*part2	*part1	*part1	*part1	*part1
*staff3	*staff2	*	*staff1	*staff1	*staff1	*
*I"Fortepian.	*I"Fortepian.	*	*I"Śpiew.	*	*	*
*I'pf	*I'pf	*	*I'V	*	*	*
*ICklav	*ICklav	*	*ICvox	*	*	*
*Ipiano	*Ipiano	*	*Ivox	*	*	*
*clefF4	*clefG2	*	*clefG2	*	*	*
*k[f#c#]	*k[f#c#]	*	*k[f#c#]	*	*	*
*D:	*D:	*	*D:	*	*	*
*M2/4	*M2/4	*	*M2/4	*	*	*
=1	=1	=1	=1	=1	=1	=1
*^	*^	*	*	*	*	*
!	!	!	!	!	!LO:TX:a:t=Allegretto grazioso. M.M. [quarter]=104.	!	!	!
8r	2AAA\ 2AA	2a/	8r	f	2r	.	.	.
8B/L	.	.	8c#\L 8g	.	.	.	.	.
8A/	.	.	8c#\ 8f#	.	.	.	.	.
8G/J	.	.	8c#\J 8e	.	.	.	.	.
=2	=2	=2	=2	=2	=2	=2	=2	=2
8F#/L	2AA\	2a/	8A\L 8e	.	2r	.	.	.
8F#/J	.	.	8A\J 8c#	.	.	.	.	.
4F#/	.	.	4A\ 4d	.	.	.	.	.
=3	=3	=3	=3	=3	=3	=3	=3	=3
8r	2AAA\ 2AA	4dd/	8r	.	2r	.	.	.
4B/	.	.	4d\ 4g	.	.	.	.	.
.	.	8b/L	.	.	.	.	.	.
8B-X/	.	8cc#/J	8e\ [8g	.	.	.	.	.
*v	*v	*	*	*	*	*	*	*
=4	=4	=4	=4	=4	=4	=4	=4
2AA\ 2A	2d/ 2dd	4g\]	.	2r	.	.	.
.	.	4f#\	.	.	.	.	.
=5	=5	=5	=5	=5	=5	=5	=5
*^	*	*	*	*	*	*	*
8r	2GG#X\	4r	8r	.	2r	.	.	.
4G#X/	.	.	4d\ 4f#	.	.	.	.	.
.	.	4dd/	.	.	.	.	.	.
8G#/	.	.	8d\ 8f#	.	.	.	.	.
=6	=6	=6	=6	=6	=6	=6	=6	=6
8r	2EE\	4cc#/	8r	.	2r	.	.	.
8E/	.	.	8d\ 8f#	.	.	.	.	.
4E/	.	4b/	4d\ 4g#X	.	.	.	.	.
*	*	*v	*v	*	*	*	*	*
=7	=7	=7	=7	=7	=7	=7	=7
8r	2EE\	8r	.	2r	.	.	.
4E/ 4d	.	(8g#X/L 8b	>	.	.	.	.
.	.	8f##X/ 8a#X	.	.	.	.	.
8E/ 8d	.	8g#/J) 8b	.	.	.	.	.
*v	*v	*	*	*	*	*	*
!!LO:LB:g=original	!	!	!	!	!	!
=8	=8	=8	=8	=8	=8	=8
*	*^	*	*	*	*	*
!	!LO:TX:a:i:t=m.g.	!	!	!	!	!	!
4AAA::/ 4AA::	4B::/ 4d:: [4gn:: 4b::	4ee/	.	2r	.	.	.
8AA\ 8A	8c#/ 8g] 8a	4ryy	]	.	.	.	.
8r	8r	.	.	.	.	.	.
*	*v	*v	*	*	*	*	*
=9	=9	=9	=9	=9	=9	=9
*^	*	*	*	*	*	*
!	!	!	!	!	!	!	!LO:DY:a
(8A/L	[2D\	(>8d/L 8f# 8a	p	8a/	Chy-	I	mf
8d/	.	8d/ 8f# 8dd	.	8dd\	-lisz	przy-	.
8c#/	.	8d/ 8f# 8cc#	.	8cc#\	głów-	-le-	.
8A/J	.	8d/J 8f# 8a	.	8a/	-kę	-ci	.
=10	=10	=10	=10	=10	=10	=10	=10
8B/L	2D\]	8d/L 8f# 8b	.	8b\	na	znów	.
8F#/J	.	8d/J 8f#	.	8f#/	pierś	mo-	.
4A/)	.	4d/) 4f# 4a	.	8a/	bia-	-ty-	.
.	.	.	.	8a/	-łą	-li	.
*v	*v	*	*	*	*	*	*
=11	=11	=11	=11	=11	=11	=11
8D\L 8G	8B/L 8f#	.	8f#/	Łza	Róż-	.
8D\ 8G	8B/ 8e	.	8e/	w o-	-no-	.
8D\ 8G	8B-X/ 8d	.	8d/	-czę-	-barw-	.
8D\J 8G	8B-/J 8e	.	8e/	-tach	-ny	.
=12	=12	=12	=12	=12	=12	=12
*^	*	*	*	*	*	*
!	!	!	!	!LO:TX:t=P:problem:niewyraźny zapis tekstu	!	!	!
(4G/	2D\	[4A/	.	4.A/	drży	tłum,	.
8F#/)	.	8A/]	.	.	.	.	.
8r	.	8r	.	8r	.	.	.
!!LO:LB:g=original	!	!	!	!	!	!	!
=13	=13	=13	=13	=13	=13	=13	=13
(8A/L	[2D\	(>8d/L 8f# 8a	.	8a/	Co	Brzo-	.
8d/	.	8d/ 8f# 8dd	.	8dd\	się	-za	.
8c#/	.	8d/ 8f# 8cc#	.	8cc#\	to-	dłu-	.
8A/J	.	8d/J 8f# 8a	.	8a/	-bie,	-gi	.
=14	=14	=14	=14	=14	=14	=14	=14
8B/L	2D\]	8d/L 8f# 8b	.	8b\	dziew-	war-	.
8F#/J	.	8d/J 8f#	.	8f#/	-czę,	-kocz	.
4A/)	.	4d/) 4f# 4a	.	8a/	sta-	schy-	.
.	.	.	.	8a/	-ło?	-li,	.
*v	*v	*	*	*	*	*	*
=15	=15	=15	=15	=15	=15	=15
8C#\L 8A	8c#/L 8f# 8cc#	.	8cc#\	Zkąd	W szmer	.
8C#\ 8A	8c#/ 8f#	.	8f#/	te	u-	.
8C#\ 8B	8c#/ 8e#X 8g#X	.	8g#X/	du-	-de-	.
8C#\J 8B	8c#/J 8e# 8a	.	8a/	-że	-rzy,	.
=16	=16	=16	=16	=16	=16	=16
*^	*^	*	*	*	*	*
[4F#/	8F#\L	4A/ 4c# 4f#	4ryy	.	4.f#/	łzy?	w szum.	.
.	8FF#\J	.	.	.	.	.	.	.
8F#/]	8BB\	4A/ 4d#X	8cn\L	.	.	.	.	.
8r	8ryy	.	8B\J	.	8r	.	.	.
*v	*v	*	*	*	*	*	*	*
*	*v	*v	*	*	*	*	*
!!LO:LB:g=original	!	!	!	!	!	!
=17	=17	=17	=17	=17	=17	=17
!	!	!	!	!	!	!LO:HP:a
4EE/ 4E	8r	.	8gn/	Mo-	Ze	<
!	!LO:TX:b:t=cresc._:dur=7e2q:ext=ud:problem:text with extention lines 	!	!	!	!	!
.	8G/ 8B 8e	<	8g/	-ze	snu	.
4DD/ 4D	8r	.	8b\	w chwi-	zie-	.
.	8B/ 8e 8g	.	8b\	-lach	-mia	.
=18	=18	=18	=18	=18	=18	=18
4CC#/ 4C#	8r	.	8a/	u-	się	.
.	8A/ 8e 8a	.	8a/	-przy-	o-	.
4BBB/ 4BB	8r	.	8dd\	-tom-	-cu-	.
.	8d/ 8g 8dd	.	8dd\	-nień	-ci	.
=19	=19	=19	=19	=19	=19	=19
*	*^	*	*	*	*	*
4AAA/ 4AA	8r	8ryy	.	8cc#\	Znik-	Cie-	.
.	(8cc#/L	4.e\ 4.g	.	8cc#\	-łych	-pły	.
4G\ 4A 4c#	8b#X/	.	.	8b#X\	ser-	spad-	.
.	8cc#/J)	.	.	8cc#\	-ca	-nie	.
=20	=20	=20	=20	=20	=20	=20	=20
4DD/ 4D	2f#/ 2a 2ff#	4cc#\	.	4.ff#\	mar	deszcz,	.
4F#\ 4A 4d	.	4ccn\	.	.	.	.	.
.	.	.	[[	8r	.	.	.
*	*v	*v	*	*	*	*	*
!!LO:PB:g=original	!	!	!	!	!	!
=21	=21	=21	=21	=21	=21	=21
!	!	!	!	!	!	!LO:DY:a
4DD#X/ 4D#X	8f#\L 8g#X 8b#X 8ff#	f	8ff#\	Czu-	W won-	f
.	8f#\ 8ff#	.	8ff#\	-jesz	-nych	.
4F#\ 4G#X 4B#X	8e#X\ 8g# 8b# 8ee#X	.	8ee#X\	roz-	ga-	.
.	8f#\J 8ff#	.	8ff#\	-kosz	-jach	.
=22	=22	=22	=22	=22	=22	=22
4.EE/ 4.E	8en/L 8a 8cc# 8een	.	8een\	daw-	pieśń	.
.	8a/ 8cc#	.	8cc#\	-nych	za-	.
.	8g#X/ 8a 8cc#	.	8ee\	wspom-	-nu-	.
8E\	8f#/J 8a 8dd	.	8dd\	-nień,	-ci	.
=23	=23	=23	=23	=23	=23	=23
!	!	!	!	!	!	!LO:HP:a
4.EE/	8e/L 8a 8cc#	>	8cc#\	Daw-	Sło-	>
.	8d#X/ 8a 8ccn 8ff#	.	8ccn\	-nych	-wik,	.
.	8dn/ 8a 8b	.	8b\	ma-	bard	.
8EE/	8d:/J 8g#X: 8b: 8ee:	.	8b\	-rzeń	i	.
=24	=24	=24	=24	=24	=24	=24
*	*^	*	*	*	*	*
!	!LO:TX:a:i:t=m.g.	!	!	!	!	!	!
4AAA::/ 4AA::	4B::/ 4d:: [4gn:: 4b::	4ee::/	.	(4ee\	czar?	wieszcz.	.
8AA\ 8A	8c#/ 8g] 8a	4ryy	]	8a/)	.	.	.
8r	8r	.	.	8r	.	.	]
*	*v	*v	*	*	*	*	*
!!LO:LB:g=original	!	!	!	!	!	!
=25	=25	=25	=25	=25	=25	=25
*^	*	*	*	*	*	*
!	!	!	!	!	!	!	!LO:DY:a
(8A/L	[2D\	(>8d/L 8f# 8a	.	8a/	Mo-	Wszyst-	mf
8d/	.	8d/ 8f# 8dd	.	8dd\	-że	-ko	.
8c#/	.	8d/ 8f# 8cc#	.	8cc#\	cie-	bę-	.
8A/J	.	8d/J 8f# 8a	.	8a/	-bie	-dzie	.
=26	=26	=26	=26	=26	=26	=26	=26
8B/L	2D\]	8d/L 8f# 8b	.	8b\	ró-	dro-	.
8F#/J	.	8d/J 8f#	.	8f#/	-żne	-gie,	.
4A/)	.	4d/) 4f# 4a	.	8a/	smu-	no-	.
.	.	.	.	8a/	-cą,	-we,	.
*v	*v	*	*	*	*	*	*
=27	=27	=27	=27	=27	=27	=27
8D\L 8G	8B/L 8f#	.	8f#/	Że	W ra-	.
8D\ 8G	8B/ 8e	.	8e/	u-	-dość	.
8D\ 8G	8B-X/ 8d	.	8d/	-wię-	przej-	.
8D\J 8G	8B-/J 8e	.	8e/	-dły	-dzie	.
=28	=28	=28	=28	=28	=28	=28
*^	*	*	*	*	*	*
(4G/	2D\	[4A/	.	4.A/	już?...	żal;	.
8F#/)	.	8A/]	.	.	.	.	.
8r	.	8r	.	8r	.	.	.
*v	*v	*	*	*	*	*	*
=29	=29	=29	=29	=29	=29	=29
8BB/L 8E	8G#X/L 8d	.	8d/	Wró-	Wró-	.
8BB/ 8E	8G#/ 8c#	.	8c#/	-ci	-cą	.
8BB-X/ 8E	8G#/ 8d	.	8d/	wio-	no-	.
8BB-/J 8D	8G#/J 8e	.	8e/	-sna,	-ce	.
!!LO:LB:g=original	!	!	!	!	!	!
=30	=30	=30	=30	=30	=30	=30
!	!	!	!	!	!	!LO:HP:a
8AA/L 8D	8F#/L 8d 8f#	.	8f#/	kwia-	księ-	<
8GG#X/J 8G#X	8d/J 8fn 8b	.	8b/	-ty	-ży-	.
4GGn/ 4Gn	4c#/ 4e 4a	.	8a/	wró-	-co-	.
!	!	!	!LO:TUP:b:problem:klamra łukowa i cyfra	!	!	!
.	.	.	24a/LL	-cą.	-we,	.
.	.	.	24b/	.	.	.
.	.	.	24cc#/JJ	.	.	[
=31	=31	=31	=31	=31	=31	=31
!	!	!	!	!	!	!LO:HP:a
8FF#/L 8F#	8A/L 8d 8a	.	8dd\	Wró-	Za-	>
8GG/ 8G	8B/ 8d 8g	.	8d/	-ci	-brzmi	.
8AA/ 8A	8d/ 8f#	.	8f#/	chwi-	kon-	.
8AA/J 8G	8A/J 8c# 8e	.	(16e/LL	-la	-cert	.
.	.	.	16f#/JJ)	.	.	]
=32	=32	=32	=32	=32	=32	=32
4D\ 4F#	4A/ 4d	.	4.d/	róż!	fal!	.
8DD/ 8AA 8D	8dd\ 8ff# 8ddd	.	.	.	.	.
8r	8r	.	8r	.	.	.
!	!LO:TX:t=P:problem: dopisane ołówkiem	!	!	!	!	!
!	!LO:TX:a:t=X:color=grey	!	!	!	!	!
=33:|!	=33:|!	=33:|!	=33:|!	=33:|!	=33:|!	=33:|!
*^	*^	*	*	*	*	*
8r	2AAA\ 2AA	2a/	8r	mf	2r	.	.	.
8B/L	.	.	8c#\L 8g	.	.	.	.	.
8A/	.	.	8c#\ 8f#	.	.	.	.	.
8G/J	.	.	8c#\J 8e	.	.	.	.	.
=34	=34	=34	=34	=34	=34	=34	=34	=34
8F#/L	2AA\	2a/	8A\L 8e	.	2r	.	.	.
8F#/J	.	.	8A\J 8c#	.	.	.	.	.
4F#/	.	.	4A\ 4d	.	.	.	.	.
!!LO:LB:g=original	!	!	!	!	!	!	!	!
=35	=35	=35	=35	=35	=35	=35	=35	=35
8r	2DD\ 2D	2dd/	8r	f	2r	.	.	.
8e/L	.	.	8f#\L 8ccn	.	.	.	.	.
8d/	.	.	8f#\ 8b	.	.	.	.	.
8cn/J	.	.	8f#\J 8a	.	.	.	.	.
=36	=36	=36	=36	=36	=36	=36	=36	=36
8B/L	2D\	2dd/	8d\L 8a	.	2r	.	.	.
8B/J	.	.	8d\J 8f#	.	.	.	.	.
4B/	.	.	4d\ 4g	.	.	.	.	.
=37	=37	=37	=37	=37	=37	=37	=37	=37
8r	2EE\ 2E	2gg/	8r	ff	2r	.	.	.
8G/L 8B-X 8d	.	.	8g\L 8b-X 8dd	.	.	.	.	.
8cn/	.	.	8d\ 8g 8ccn	.	.	.	.	.
8B-/J	.	.	8d\J 8g 8b-	.	.	.	.	.
=38	=38	=38	=38	=38	=38	=38	=38	=38
8B-X/L	2AA\	2dd/	8d\L 8f#X 8b-X	>	2r	.	.	.
8G#X/J	.	.	8d\J 8f# 8g#X	.	.	.	.	.
4A/	.	.	4d\ 4f# 4a	]]	.	.	.	.
=39	=39	=39	=39	=39	=39	=39	=39	=39
!	!LO:TX:b:t=Pag.10	!	!	!	!	!	!	!
8r	2AAA\ 2AA	2a/ 2aa	8r	.	2r	.	.	.
8Bn/L	.	.	8c#\L 8gn 8a	.	.	.	.	.
8A/	.	.	8c#\ 8f# 8a	.	.	.	.	.
8Gn/J	.	.	8c#\J 8e 8a	.	.	.	.	.
*v	*v	*	*	*	*	*	*	*
*	*v	*v	*	*	*	*	*
=40	=40	=40	=40	=40	=40	=40
4D\ 4F#	4d/ 4a 4dd	.	2r	.	.	.
8DD/ 8AA 8D	8dd\ 8ff# 8ddd	.	.	.	.	.
8r	8r	.	.	.	.	.
==	==	==	==	==	==	==
*-	*-	*-	*-	*-	*-	*-
!!!system-decoration: s1{(s2,s3)}
!!!RDF**kern: > = above
!!!RDF**kern: < = below
!!!ENC: Anastazja Marusiak
!!!END: 2022-11-23
!!!ENC: Jan Barakat
!!!END: 2022-12-08
!!!YEC: Copyright 2022 Narodowy Instytut Fryderyka Chopina (https://polishscores.org)
!!!YEM: License CC-BY-4.0 (https://creativecommons.org/licenses/by/4.0)
